src/assets/signals/pvd.svg

<svg width="32" height="32" viewBox="0 0 32 32" fill="none" xmlns="http://www.w3.org/2000/svg">
<path fill-rule="evenodd" clip-rule="evenodd" d="M16 31.25C11.2646 31.25 7.03333 29.0917 4.23622 25.7051L2.17098 29.8356C1.98574 30.2061 1.53524 30.3562 1.16475 30.171C0.79427 29.9857 0.644102 29.5352 0.829344 29.1648L3.23686 24.3497C1.66445 21.9511 0.75 19.0823 0.75 16C0.75 7.57766 7.57766 0.75 16 0.75C20.397 0.75 24.3593 2.61086 27.1425 5.58801L28.8835 3.07316C29.1193 2.7326 29.5865 2.64765 29.9271 2.88342C30.2676 3.1192 30.3526 3.58641 30.1168 3.92698L28.1448 6.77547C30.0933 9.33688 31.25 12.5334 31.25 16C31.25 24.4223 24.4223 31.25 16 31.25ZM2.25 16C2.25 8.40608 8.40608 2.25 16 2.25C20.0819 2.25 23.7483 4.02865 26.2666 6.8532L20.3348 15.4213L11.9606 8.90805C11.7833 8.7701 11.5534 8.71894 11.3343 8.76865C11.1151 8.81835 10.9298 8.96368 10.8293 9.16466L7.03667 16.75H2.27011C2.25676 16.5017 2.25 16.2516 2.25 16ZM2.43319 18.25C2.6996 19.8685 3.24865 21.3918 4.02797 22.7675L4.82934 21.1648C5.01459 20.7943 5.46509 20.6441 5.83557 20.8293C6.20606 21.0146 6.35623 21.4651 6.17098 21.8356L4.97787 24.2218C7.48511 27.5776 11.4889 29.75 16 29.75C22.1784 29.75 27.405 25.675 29.1389 20.0661L20.9449 26.1038C20.6988 26.2851 20.3673 26.299 20.1069 26.1387L7.28772 18.25H2.43319ZM29.6267 17.8494C29.708 17.2445 29.75 16.6272 29.75 16C29.75 13.0512 28.8217 10.3192 27.2415 8.08022L21.1168 16.927C20.9995 17.0965 20.8176 17.2102 20.6138 17.2414C20.41 17.2726 20.2024 17.2186 20.0397 17.0921L11.7618 10.6537L8.47809 17.2213L20.4623 24.5962L29.5551 17.8962C29.5783 17.8791 29.6022 17.8635 29.6267 17.8494Z" fill="#1C1F31"/>
</svg>

<svg width="32" height="32" fill="none" xmlns="http://www.w3.org/2000/svg"><path fill-rule="evenodd" clip-rule="evenodd" d="M16 31.25a15.219 15.219 0 0 1-11.764-5.545l-2.065 4.13a.75.75 0 0 1-1.342-.67l2.408-4.815A15.179 15.179 0 0 1 .75 16C.75 7.578 7.578.75 16 .75c4.397 0 8.36 1.86 11.142 4.838l1.742-2.515a.75.75 0 0 1 1.233.854l-1.972 2.848A15.183 15.183 0 0 1 31.25 16c0 8.422-6.828 15.25-15.25 15.25zM2.25 16C2.25 8.406 8.406 2.25 16 2.25c4.082 0 7.748 1.779 10.267 4.603l-5.932 8.568-8.374-6.513a.75.75 0 0 0-1.132.257L7.037 16.75H2.27a13.97 13.97 0 0 1-.02-.75zm.183 2.25a13.658 13.658 0 0 0 1.595 4.517l.801-1.602a.75.75 0 1 1 1.342.67l-1.193 2.387A13.73 13.73 0 0 0 16 29.75c6.178 0 11.405-4.075 13.139-9.684l-8.194 6.038a.75.75 0 0 1-.838.035L7.287 18.25H2.434zm27.194-.4c.081-.606.123-1.223.123-1.85 0-2.949-.928-5.68-2.509-7.92l-6.124 8.847a.75.75 0 0 1-1.077.165l-8.278-6.438-3.284 6.567 11.984 7.375 9.093-6.7a.757.757 0 0 1 .072-.047z" fill="#1C1F31"/></svg>
